X: 8
T: JIGS: Banish Misfortune Set
T: Banish Misfortune
C: C: Trad.; S: Various
C: Set Leaders: Oliushka, Anton, Sophie, Tania, André
Z: Oleg Naumov arr.; Jeremy / uilleannpipes at The Session
N: https://thesession.org/members/26966/sets/95963
R: Jig
M: 6/8
L: 1/8
Q: 3/8=116
K: Dmix
|:"D"fed cAG|A2d cAG|F2D DED|"D"FEF "(Em)"GFG|
"D/F#"AGA cAG|"D (G)"AGA cde|"D/F#"fed "C"cAG|"A"Ad^c "(D)"d3:||
|:"D"f2d d^cd|f2g agf|"C"e2c cBc|e2f gfe|
"D"f2g agf|"C"e2f gfe|"D"fed "C"cAG|"A"Ad^c "(D)"d3:||
|:"D"f2g "(Dsus4)"e2f|"D"d2e "(G)"c2d|"(D/F#)"ABA "(G)"GAG|"(D/F#)"F2F "(G/B)"GED|
"C"c3 cAG|AGA cde|"D"fed "C"cAG|"A"Ad^c "(D)"d3:||
T: Frost Is All Over / Kitty Lie Over
K: Dmaj
d2B|"D"AFD DFA|"D"Add "D/B"B2A|"D"ABA ~F3|"G"GFG EFG|
"D"AFD DFA|"D"Add "D/B"B2A|"D"ABA "A"F2E|1 "Em"E"D"DD:|2 "Em"E"D"DD D2||
e|"D"fdd ede|fdd d2e|"D"fdd def|"G"g2e efg|
"D"afd B2A|"G"AdF G2B|"D"ABA "A"F2E|"Em"E"D"DD D2:||

